src/images/finished-project.svg

<?xml version="1.0" encoding="UTF-8"?>
<svg width="45px" height="55px" viewBox="0 0 45 55" version="1.1" xmlns="http://www.w3.org/2000/svg" xmlns:xlink="http://www.w3.org/1999/xlink">
    <!-- Generator: Sketch 53 (72520) - https://sketchapp.com -->
    <title>10</title>
    <desc>Created with Sketch.</desc>
    <g id="Marshmello_landing-page" stroke="none" stroke-width="1" fill="none" fill-rule="evenodd">
        <g id="Marshmello_landngpage-Copy" transform="translate(-453.000000, -2476.000000)" fill="#00B3FF" fill-rule="nonzero">
            <g id="10" transform="translate(453.000000, 2476.000000)">
                <path d="M44.8334653,45.5471646 L38.2936518,29.6735298 C40.3103344,26.6422274 41.4877764,23.0012237 41.4877764,19.0891484 C41.4877764,8.56309357 32.9696934,0 22.5000628,0 C12.0300147,0 3.51234917,8.56309357 3.51234917,19.0891484 C3.51234917,23.0012237 4.68979117,26.6422274 6.7064738,29.6735298 L0.166242774,45.5471646 C-0.505984804,47.1790492 0.967070294,48.8889824 2.67185603,48.4500647 L11.3206267,46.2227456 L15.8696447,53.9461885 C16.7698451,55.4752674 19.0128303,55.3023858 19.6838053,53.673858 L22.5000628,46.8379019 L25.3163203,53.673858 C25.9872953,55.3023858 28.2302805,55.4752674 29.1304809,53.9461885 L33.6794988,46.2227456 L42.3282696,48.4500647 C44.0305501,48.8881433 45.5069455,47.1811474 44.8334653,45.5471646 Z M17.3698394,48.058983 L14.1823954,42.6467822 C13.6980576,41.8251751 12.7327221,41.4227639 11.8124802,41.6598466 L5.75157666,43.2212358 L9.83838599,33.3015254 C12.3201999,35.5380761 15.3882296,37.129258 18.7798471,37.8090352 L20.1865145,41.2230269 L17.3698394,48.058983 Z M22.5000628,33.8810145 C14.3874038,33.8810145 7.78704812,27.2452149 7.78704812,19.0887288 C7.78704812,10.9326623 14.3874038,4.29686274 22.5000628,4.29686274 C30.6127217,4.29686274 37.2130775,10.9326623 37.2130775,19.0887288 C37.2130775,27.2452149 30.6127217,33.8810145 22.5000628,33.8810145 Z M33.1872278,41.6598466 C32.2674034,41.4227639 31.3016505,41.8251751 30.8177302,42.6467822 L27.6298687,48.058983 L23.5468171,38.1485041 C27.9960447,37.9042879 32.0423534,36.1129493 35.1613221,33.3015254 L39.2485489,43.2212358 L33.1872278,41.6598466 Z" id="Shape"></path>
            </g>
        </g>
    </g>
</svg>

<svg width="45" height="55" xmlns="http://www.w3.org/2000/svg"><path d="M44.833 45.547l-6.54-15.873a19.05 19.05 0 003.195-10.585C41.488 8.563 32.97 0 22.5 0 12.03 0 3.512 8.563 3.512 19.09a19.05 19.05 0 003.194 10.584L.166 45.547c-.672 1.632.801 3.342 2.506 2.903l8.649-2.227 4.549 7.723c.9 1.53 3.143 1.356 3.814-.272l2.816-6.836 2.816 6.836c.671 1.628 2.914 1.801 3.814.272l4.55-7.723 8.648 2.227c1.703.438 3.179-1.269 2.505-2.903zM17.37 48.06l-3.188-5.412a2.133 2.133 0 00-2.37-.987l-6.06 1.561 4.086-9.92a18.908 18.908 0 008.942 4.508l1.407 3.414-2.817 6.836zm5.13-14.178c-8.113 0-14.713-6.636-14.713-14.792 0-8.156 6.6-14.792 14.713-14.792s14.713 6.636 14.713 14.792c0 8.156-6.6 14.792-14.713 14.792zm10.687 7.779a2.133 2.133 0 00-2.37.987l-3.187 5.412-4.083-9.91a18.86 18.86 0 0011.614-4.847l4.088 9.92-6.062-1.562z" fill="#00B3FF" fill-rule="nonzero"/></svg>
